X:1
T:Title
%%score { ( 1 3 5 ) | ( 2 4 ) }
L:1/8
M:4/4
K:Ab
V:1 treble nm="Grand Piano"
V:3 treble 
V:5 treble 
V:2 bass 
V:4 bass 
V:1
 z4 z2[Q:1/4=96] [A,CE]>[B,DE] | [CEA]>[CEA] [DFA]>[DFA] [CEA]>[A,CE] [A,EA]>B | c2 d2 c2 (3cBA | %3
 e6 z2 | B6 z2 | [CEA]>[CEA] [DFA]>[DFA] [CEA]>[A,CE] [A,EA]>B | c2 d2 c2 (3cBA | e6 z2 | %8
 [CA]6 G>A | B>B B>c d>B [Ac]>[Ad] | e2 f2 e2 (3edc | B6 z2 | A6 z2 | B>B B>c d>B [Ac]>[Ad] | %14
 e2 f2 e2 (3edc | B6 z2 | e6 z2 | [A,CA]>[CEA] [DFA]>[DFA] [CEA]>[A,CE] [A,EA]>B | c2 d2 c2 (3cBA | %19
 e6 z2 |[M:3/4] A6 |] %21
V:2
 z4 z2 A,,>A,, | A,,>A,, A,,>A,, A,,>A,, C,>[E,G,E] | [A,E]2 [A,F]2 [A,E]2 (3AGF | %3
 G2[K:bass] (3A,-[A,B,]A, E,2[K:treble] (3ABA | G6[K:bass] z2 | %5
 A,,>A,, A,,>A,, A,,>A,, C,>[E,G,E] | [A,E]2 [A,F]2 [A,E]2 (3AGF | %7
 G2[K:bass] (3A,-[A,B,]A, (3E,-[E,E]E,[K:treble] (3GAG | A,,6 [E,B,E]>[E,CE] | %9
 [E,DE]>[E,DE] [E,DE]>[E,CE] [E,B,E]>[E,G,E] [E,A,]>[E,B,] | [A,CA]2 [A,DA]2 [A,CA]2 (3cBA | %11
 G6[K:bass][K:treble] z2 | z2[K:bass] A,,>A,, A,,2 [E,B,E]>[E,CE] | %13
 [E,DE]>[E,DE] [E,DE]>[E,CE] [E,B,E]>[E,G,E] [E,A,]>[E,B,] | [A,CA]2 [A,DA]2 [A,CA]2 (3cBA | %15
 G2 [B,=D]>B, B,2 (3GAF | G6[K:bass] z2 | A,,>A,, A,,>A,, A,,>A,, C,>[E,G,E] | %18
 [A,E]2 [A,F]2 [A,E]2 (3AGF | G2[K:bass] (3A,-[A,B,]A, E,2 (3E,-[E,E]E, |[M:3/4] z2 D>D C2 |] %21
V:3
 x8 | x8 | x8 | z2 .[CA]2 [B,G]2 (3cdc | z2 E>E E2 E>[DE] | x8 | x8 | z4 G2 z2 | x8 | x8 | x8 | %11
 z2 E>E E2 (3dcB | z2 C>C C2 G>A | x8 | x8 | z2 z z/ =D/ D2 (3Bc=d | z2 (3EDC B,2 [A,E]>[G,DE] | %17
 x8 | x8 | z2 .[CA]2 [B,G]2 (3[DGB][Ac][DGB] |[M:3/4] C2 F>F E2 |] %21
V:4
 x8 | x8 | x8 | x2[K:bass] x4[K:treble] x2 | z2[K:bass] E,>E, E,>D, C,>B,, | x8 | x8 | %7
 x2[K:bass] x4[K:treble] x2 | x8 | x8 | x8 | z2[K:bass] E,>E, E,2[K:treble] (3BAG | x2[K:bass] x6 | %13
 x8 | x8 | x8 | z2[K:bass] (3:2:2E,2 E, E,>D, C,>B,, | x8 | x8 | x2[K:bass] x6 |[M:3/4] A,,6 |] %21
V:5
 x8 | x8 | x8 | x8 | x8 | x8 | x8 | z2 .[CA]2 (3D z D (3BcB | x8 | x8 | x8 | x8 | x8 | x8 | x8 | %15
 z2 F4 z2 | x8 | x8 | x8 | x8 |[M:3/4] x6 |] %21

